X:5856
T:Gan Ainm
M:4/4
L:1/8
R:reel
K:D
~B3G ~A3B|G~B3 G~B3|d~A3 d2eg|fd=cA AGG2|
~B3G ~A3B|G~B3 G~B3|d~A3 d2eg|fd=cA AGG2||
d~G3 dG(3Bcd|~g3a bgaf|d~G3 d2eg|fd=cA AGG2|
d~G3 dG(3Bcd|~g3a bgaf|~g3a bgaf|ged=c BGG2|


